www/assets/images/src/icon_info_circle_white.svg

<svg fill="none" height="24" viewBox="0 0 24 24" width="24" xmlns="http://www.w3.org/2000/svg"><path d="m12 22c5.5 0 10-4.5 10-10s-4.5-10-10-10-10 4.5-10 10 4.5 10 10 10zm0-15c.6 0 1 .4 1 1s-.4 1-1 1-1-.4-1-1 .4-1 1-1zm-1 5c0-.6.4-1 1-1s1 .4 1 1v4c0 .6-.4 1-1 1s-1-.4-1-1z" fill="#fff"/></svg>

<svg width="24" height="24" viewBox="0 0 24 24" fill="none" xmlns="http://www.w3.org/2000/svg">
<path d="M12 22C17.5 22 22 17.5 22 12C22 6.5 17.5 2 12 2C6.5 2 2 6.5 2 12C2 17.5 6.5 22 12 22ZM12 7C12.6 7 13 7.4 13 8C13 8.6 12.6 9 12 9C11.4 9 11 8.6 11 8C11 7.4 11.4 7 12 7ZM11 12C11 11.4 11.4 11 12 11C12.6 11 13 11.4 13 12L13 16C13 16.6 12.6 17 12 17C11.4 17 11 16.6 11 16L11 12Z" fill="#fff"/>
</svg>
